icons/linear-ele-nature-weather-sun-sunrise-1.svg

<svg xmlns="http://www.w3.org/2000/svg" width="32px" height="32px" viewBox="0 0 32 32" version="1.1">
    <title>linear-ele-nature-weather-sun-sunrise-1</title>
    <g id="linear-ele-nature-weather-sun-sunrise-1" stroke-width="1" fill-rule="evenodd">
        <path d="M30,25 C30.5522847,25 31,25.4477153 31,26 C31,26.5522847 30.5522847,27 30,27 L2,27 C1.44771525,27 1,26.5522847 1,26 C1,25.4477153 1.44771525,25 2,25 L30,25 Z M16,12 C22.0751322,12 27,16.9248678 27,23 L25,23 C25,18.0294373 20.9705627,14 16,14 C11.0294373,14 7,18.0294373 7,23 L5,23 C5,16.9248678 9.92486775,12 16,12 Z M28.7071068,10.2928932 C29.0976311,10.6834175 29.0976311,11.3165825 28.7071068,11.7071068 L26.7071068,13.7071068 C26.3165825,14.0976311 25.6834175,14.0976311 25.2928932,13.7071068 C24.9023689,13.3165825 24.9023689,12.6834175 25.2928932,12.2928932 L27.2928932,10.2928932 C27.6834175,9.90236893 28.3165825,9.90236893 28.7071068,10.2928932 Z M4.70710678,10.2928932 L6.70710678,12.2928932 C7.09763107,12.6834175 7.09763107,13.3165825 6.70710678,13.7071068 C6.31658249,14.0976311 5.68341751,14.0976311 5.29289322,13.7071068 L3.29289322,11.7071068 C2.90236893,11.3165825 2.90236893,10.6834175 3.29289322,10.2928932 C3.68341751,9.90236893 4.31658249,9.90236893 4.70710678,10.2928932 Z M16,5 C16.5522847,5 17,5.44771525 17,6 L17,9 C17,9.55228475 16.5522847,10 16,10 C15.4477153,10 15,9.55228475 15,9 L15,6 C15,5.44771525 15.4477153,5 16,5 Z" id="&#24418;&#29366;" fill-rule="nonzero" />
    </g>
</svg>

<svg xmlns="http://www.w3.org/2000/svg" viewBox="0 0 32 32"><path fill="currentColor" d="M30 25a1 1 0 0 1 0 2H2a1 1 0 0 1 0-2zM16 12c6.075 0 11 4.925 11 11h-2a9 9 0 0 0-18 0H5c0-6.075 4.925-11 11-11m12.707-1.707a1 1 0 0 1 0 1.414l-2 2a1 1 0 0 1-1.414-1.414l2-2a1 1 0 0 1 1.414 0m-24 0 2 2a1 1 0 0 1-1.414 1.414l-2-2a1 1 0 0 1 1.414-1.414M16 5a1 1 0 0 1 1 1v3a1 1 0 0 1-2 0V6a1 1 0 0 1 1-1"/></svg>
